file/colgate-palmolive.svg

<svg clip-rule="evenodd" fill-rule="evenodd" stroke-linejoin="round" stroke-miterlimit="1.41421" viewBox="0 0 560 400" xmlns="http://www.w3.org/2000/svg"><g fill-rule="nonzero" transform="matrix(1.66667 0 0 1.66667 25.888 163.437)"><path d="m87.448 11.291c-4.844 0-9.687 3.136-9.687 8.275 0 3.003 2.938 4.799 5.77 4.799h1.643c3.642 0 6.96-2.256 8.171-5.585.192-.528.505-1.21.505-1.779v-1.406c.001-3.036-3.865-4.304-6.402-4.304zm2.191 5.958c0 .088-.188.69-.225.814-.446 1.532-1.054 2.485-2.626 3.103-.343.135-.819.303-1.193.303h-1.18c-1.437 0-2.485-1.266-2.485-2.606 0-2.619 2.183-4.676 4.802-4.676 1.169 0 1.818.413 2.528 1.284.146.179.184.447.378.909v.869z"/><path d="m72.076 24.366h-1.475c-2.97 0-5.602-1.927-5.602-4.964 0-5.114 4.747-8.11 9.562-8.11 1.119 0 2.296.319 3.411.455l-.337 2.896c-1.029-.086-1.99-.456-3.074-.456-2.757 0-5.435 1.789-5.434 4.678 0 1.343 1.023 2.606 2.485 2.606h1.474c1.02 0 2.085-.24 3.075-.456l-1.011 3.021c-.924.166-2.135.33-3.074.33zm41.948-.002h-2.106c-2.943 0-5.307-1.86-5.307-4.84 0-5.166 4.841-8.233 9.688-8.233 1.652 0 3.199.499 4.802.577l-.463 3.022c-1.409-.263-2.605-.704-4.086-.704-2.992 0-5.854 1.804-5.854 5.006 0 1.942 1.549 2.483 3.243 2.483.36 0 1.428-.085 1.686-.332l.462-1.902h-1.6l.589-2.689v-.001h5.686l-1.601 7.076c-1.667.218-3.458.537-5.139.537zm128.129 0h-1.643c-3.141 0-5.728-1.912-5.728-5.088 0-4.944 5.03-7.985 9.603-7.985 2.576 0 6.402 1.21 6.402 4.303v1.406c0 4.058-4.839 7.364-8.634 7.364zm-60.947-12.825c1.685 0 5.602.189 5.602 2.607 0 5.119-5.428 5.503-9.308 5.504l-1.095 4.386h-3.833l3.496-12.497zm103.908-.001h4.422c-3.19 4.009-5.906 8.397-8.97 12.497h-4.887l-.335-2.896c-.326-3.19-1.676-6.386-1.813-9.601h4.297l1.138 9.351zm-17.731 0h4.084l-2.948 12.497h-4.085zm-169.826 0h4.044l-2.233 9.806h5.981l-.673 2.691h-10.068zm156.853 0h4.084l-2.274 9.806h6.024l-.547 2.691h-10.236zm-48.943 0h4.212l-2.275 9.806h6.023l-.673 2.691h-10.235zm-62.927 2.649h-4.085l.548-2.649h12.51l-.718 2.649h-4.085l-2.358 9.848h-4.086zm149.145-2.649h10.782l-.673 2.649h-6.613l-.547 2.234h5.56l-.549 2.69h-5.601l-.547 2.233h6.697l-.674 2.691h-10.784zm-93.799 0c.118 1.177 2.263 12.226 2.526 12.497h-4.464l-.548-3.559h-4.843l-2.402 3.559h-4.548c3.197-4.1 6.081-8.423 9.309-12.497zm26.366 7.903 4.212-7.903h5.559l-2.948 12.497h-3.412l2.022-8.938-4.885 8.938h-3.622l-.464-8.938-2.275 8.938h-3.074l2.948-12.497h5.476zm-59.725-7.903-.674 2.649h-6.613l-.548 2.234h5.56l-.547 2.69h-5.601l-.549 2.233h6.571l-.547 2.691h-10.826l2.991-12.497zm-29.863 0c.105 2.033 1.643 8.441 2.147 10.758.094.429.377 1.3.431 1.735l-4.389.004-.59-3.559h-4.885l-2.402 3.559h-4.548c3.152-4.041 6.358-8.265 9.224-12.497zm107.867 9.931c2.285 0 4.086-2.437 4.085-4.51 0-.276-.121-.615-.084-.869-.753-1.481-1.785-1.903-2.864-1.903-.637 0-1.435.11-2.021.373-1.193.533-2.696 2.529-2.696 3.847v.91c0 1.088 1.399 2.152 2.443 2.152zm-76.993-3.6h5.264l-.716 2.607h-5.223zm29.61-.083-.506-3.476-2.527 3.476zm-63.095 0-.674-3.476-2.401 3.476zm48.269-4.178h-1.053l-.842 3.723h1.347c.959 0 2.174-.546 2.612-1.406l.169-.87c0-1.148-1.286-1.447-2.233-1.447z"/><path d="m2.469 17.081s.395-14.323 16.764-14.521h12.276l-2.751 12.133-10.127.036c-3.375.025-4.019 2.798-4.019 2.798s-.197 2.92 3.036 3.252l9.729.004-2.797 12.336-5.677.017c-16.962-.347-16.434-16.055-16.434-16.055zm54.32 0s-.726-14.323-17.095-14.521h-5.214l-2.727 12.133 8.544.036c3.374.025 4.018 2.798 4.018 2.798s.197 2.92-3.037 3.252l-10.917.004-4.726 20.521 11.551.011 1.913-8.182.924.002c16.964-.346 16.766-16.054 16.766-16.054z" fill="#007ac2"/></g></svg>

<?xml version="1.0" encoding="UTF-8" standalone="no"?>
<!DOCTYPE svg PUBLIC "-//W3C//DTD SVG 1.1//EN" "http://www.w3.org/Graphics/SVG/1.1/DTD/svg11.dtd">
<svg width="100%" height="100%" viewBox="0 0 560 400" version="1.1" xmlns="http://www.w3.org/2000/svg" xmlns:xlink="http://www.w3.org/1999/xlink" xml:space="preserve" xmlns:serif="http://www.serif.com/" style="fill-rule:evenodd;clip-rule:evenodd;stroke-linejoin:round;stroke-miterlimit:1.41421;">
    <g transform="matrix(1.66667,0,0,1.66667,25.888,163.437)">
        <g>
            <g>
                <path d="M87.448,11.291C82.604,11.291 77.761,14.427 77.761,19.566C77.761,22.569 80.699,24.365 83.531,24.365L85.174,24.365C88.816,24.365 92.134,22.109 93.345,18.78C93.537,18.252 93.85,17.57 93.85,17.001L93.85,15.595C93.851,12.559 89.985,11.291 87.448,11.291ZM89.639,17.249C89.639,17.337 89.451,17.939 89.414,18.063C88.968,19.595 88.36,20.548 86.788,21.166C86.445,21.301 85.969,21.469 85.595,21.469L84.415,21.469C82.978,21.469 81.93,20.203 81.93,18.863C81.93,16.244 84.113,14.187 86.732,14.187C87.901,14.187 88.55,14.6 89.26,15.471C89.406,15.65 89.444,15.918 89.638,16.38L89.638,17.249L89.639,17.249Z" style="fill-rule:nonzero;"/>
                <path d="M72.076,24.366L70.601,24.366C67.631,24.366 64.999,22.439 64.999,19.402C64.999,14.288 69.746,11.292 74.561,11.292C75.68,11.292 76.857,11.611 77.972,11.747L77.635,14.643C76.606,14.557 75.645,14.187 74.561,14.187C71.804,14.187 69.126,15.976 69.127,18.865C69.127,20.208 70.15,21.471 71.612,21.471L73.086,21.471C74.106,21.471 75.171,21.231 76.161,21.015L75.15,24.036C74.226,24.202 73.015,24.366 72.076,24.366ZM114.024,24.364L111.918,24.364C108.975,24.364 106.611,22.504 106.611,19.524C106.611,14.358 111.452,11.291 116.299,11.291C117.951,11.291 119.498,11.79 121.101,11.868L120.638,14.89C119.229,14.627 118.033,14.186 116.552,14.186C113.56,14.186 110.698,15.99 110.698,19.192C110.698,21.134 112.247,21.675 113.941,21.675C114.301,21.675 115.369,21.59 115.627,21.343L116.089,19.441L114.489,19.441L115.078,16.752L115.078,16.751L120.764,16.751L119.163,23.827C117.496,24.045 115.705,24.364 114.024,24.364ZM242.153,24.364L240.51,24.364C237.369,24.364 234.782,22.452 234.782,19.276C234.782,14.332 239.812,11.291 244.385,11.291C246.961,11.291 250.787,12.501 250.787,15.594L250.787,17C250.787,21.058 245.948,24.364 242.153,24.364ZM181.206,11.539C182.891,11.539 186.808,11.728 186.808,14.146C186.808,19.265 181.38,19.649 177.5,19.65L176.405,24.036L172.572,24.036L176.068,11.539L181.206,11.539ZM285.114,11.538L289.536,11.538C286.346,15.547 283.63,19.935 280.566,24.035L275.679,24.035L275.344,21.139C275.018,17.949 273.668,14.753 273.531,11.538L277.828,11.538L278.966,20.889L285.114,11.538ZM267.383,11.538L271.467,11.538L268.519,24.035L264.434,24.035L267.383,11.538ZM97.557,11.538L101.601,11.538L99.368,21.344L105.349,21.344L104.676,24.035L94.608,24.035L97.557,11.538ZM254.41,11.538L258.494,11.538L256.22,21.344L262.244,21.344L261.697,24.035L251.461,24.035L254.41,11.538ZM205.467,11.538L209.679,11.538L207.404,21.344L213.427,21.344L212.754,24.035L202.519,24.035L205.467,11.538ZM142.54,14.187L138.455,14.187L139.003,11.538L151.513,11.538L150.795,14.187L146.71,14.187L144.352,24.035L140.266,24.035L142.54,14.187ZM291.685,11.538L302.467,11.538L301.794,14.187L295.181,14.187L294.634,16.421L300.194,16.421L299.645,19.111L294.044,19.111L293.497,21.344L300.194,21.344L299.52,24.035L288.736,24.035L291.685,11.538ZM197.886,11.538C198.004,12.715 200.149,23.764 200.412,24.035L195.948,24.035L195.4,20.476L190.557,20.476L188.155,24.035L183.607,24.035C186.804,19.935 189.688,15.612 192.916,11.538L197.886,11.538ZM224.252,19.441L228.464,11.538L234.023,11.538L231.075,24.035L227.663,24.035L229.685,15.097L224.8,24.035L221.178,24.035L220.714,15.097L218.439,24.035L215.365,24.035L218.313,11.538L223.789,11.538L224.252,19.441ZM164.527,11.538L163.853,14.187L157.24,14.187L156.692,16.421L162.252,16.421L161.705,19.111L156.104,19.111L155.555,21.344L162.126,21.344L161.579,24.035L150.753,24.035L153.744,11.538L164.527,11.538ZM134.664,11.538C134.769,13.571 136.307,19.979 136.811,22.296C136.905,22.725 137.188,23.596 137.242,24.031L132.853,24.035L132.263,20.476L127.378,20.476L124.976,24.035L120.428,24.035C123.58,19.994 126.786,15.77 129.652,11.538L134.664,11.538ZM242.531,21.469C244.816,21.469 246.617,19.032 246.616,16.959C246.616,16.683 246.495,16.344 246.532,16.09C245.779,14.609 244.747,14.187 243.668,14.187C243.031,14.187 242.233,14.297 241.647,14.56C240.454,15.093 238.951,17.089 238.951,18.407L238.951,19.317C238.951,20.405 240.35,21.469 241.394,21.469L242.531,21.469ZM165.538,17.869L170.802,17.869L170.086,20.476L164.863,20.476L165.538,17.869ZM195.148,17.786L194.642,14.31L192.115,17.786L195.148,17.786ZM132.053,17.786L131.379,14.31L128.978,17.786L132.053,17.786ZM180.322,13.608L179.269,13.608L178.427,17.331L179.774,17.331C180.733,17.331 181.948,16.785 182.386,15.925L182.555,15.055C182.555,13.907 181.269,13.608 180.322,13.608Z" style="fill-rule:nonzero;"/>
                <path d="M2.469,17.081C2.469,17.081 2.864,2.758 19.233,2.56L31.509,2.56L28.758,14.693L18.631,14.729C15.256,14.754 14.612,17.527 14.612,17.527C14.612,17.527 14.415,20.447 17.648,20.779L27.377,20.783L24.58,33.119L18.903,33.136C1.941,32.789 2.469,17.081 2.469,17.081ZM56.789,17.081C56.789,17.081 56.063,2.758 39.694,2.56L34.48,2.56L31.753,14.693L40.297,14.729C43.671,14.754 44.315,17.527 44.315,17.527C44.315,17.527 44.512,20.447 41.278,20.779L30.361,20.783L25.635,41.304L37.186,41.315L39.099,33.133L40.023,33.135C56.987,32.789 56.789,17.081 56.789,17.081Z" style="fill:rgb(0,122,194);fill-rule:nonzero;"/>
            </g>
        </g>
    </g>
</svg>
